X: 1
T: Galway, The
M: 4/4
L: 1/8
R: hornpipe
K: Dmaj
(3A,B,C \
|:D2 FA dAFD | CD EF G2 FE | D2 FA dc df|(3efe (3dcB (3ABA (3GFE|
D2 FA dA FD | CD EF G2 FG | AdcB (3ABA (3GFE | (3DFA (3dAF D4 :|
fe fg fe dc | B^A Bc B2 cd | e^d ef e=d cB | (3Ace (3aec A2 (3ABc|
dc de fd AF | GF GA Bd cB | AdcB (3ABA (3GFE | (3DFA (3dAF D4 :|
